X:1
T:Alcester, 77.77
T:Samuel Sebastian Wesley (1810-1876)
T:Alcester, 77.77
T:Public Domain
C:Samuel Sebastian Wesley (1810-1876)
Z:Public Domain
%%score ( 1 2 ) ( 3 4 )
L:1/8
M:4/4
K:E
V:1 treble 
V:2 treble 
V:3 bass 
V:4 bass 
V:1
 [EB]2 (GF) E2 [DB]2 | [Ee]2 [Ec]2 [EB]4 | [DA]2 [EG]2 [Ec]2 [EB]2 | (ED) [EG]2 [DF]4 | %4
 [B,E]2 [DF]2 [B,G]2 [B,E]2 | [EB]2 [EA]2 [DF]4 | (BA)(GF) E2 [EA]2 | [EG]2 [DF]2 E4 |] %8
V:2
 x2 E2 E2 x2 | x8 | x8 | A2 x6 | x8 | x8 | E2 E2 E2 x2 | x4 E4 |] %8
V:3
 [E,G,]2 [B,,B,]2 [C,E,]2 (B,,A,,) | [G,,B,]2 [A,,A,]2 [E,G,]4 | [F,B,]2 [E,B,]2 A,2 [G,B,]2 | %3
 [F,B,]2 [E,B,]2 [B,,B,]4 | [G,B,]2 B,2 [E,B,]2 [E,G,]2 | [G,,B,]2 [A,,C]2 [B,,B,]4 | %6
 [G,,B,]2 (B,A,) [C,G,]2 [A,,C]2 | (B,,2 z A,) [E,G,]4 |] %8
V:4
 x6 F,2 | x8 | x4 A,2 x2 | x8 | x2 B,2 x4 | x8 | x2 B,,2 x4 | B,3 B,,2 x3 |] %8

